X: 232
T: Joe Yates 1st Set Tune
B: australian dance tunes
M:6/8
L:1/8
Q: 3/8=100
K:G
V:1 
c|B2 A G2 D|F2 E c2 c|B2 A DEF|A2 G D3|!
B2 A G2 D|F2 E c2 c|B2 A DEF| G3 G2:|!
s+F3A3+s+FA++FA++FA+|+FA+ z + FA+ +F2A2+e|f2 f AB^c|e2 d d^cB|!
s+F3A3+s+FA++FA++FA+|+FA+ z +FA+ +F2A2+e|f2 f AB^c|1 d3 d^cB:|2 d3 d2||
% abcbook-tune_id 62a078504594897564b6fb8d


% abcbook-boost 0
% abcbook-tablature 
% abcbook-transpose 
% abcbook-lastupdated 1654683750439
% abcbook-soundfonts 
% abcbook-repeats 1


